X: 162
T: No_85_Around_the_Sky.krn
%%abc-version 2.0
%%abcx-abcm2ps-target-version 5.9.1 (29 Sep 2008)
%%abc-creator hum2abc beta
%%abcx-conversion-date 2020/08/10 18:54:57
%%gracespace 0 6 6
%%humdrum-veritas 2328079407
%%humdrum-veritas-data 677870577
%%linebreak <none>
%%barnumbers 0
L: 1/8
M: 2/4
%%staves {1 2}
V: 1 clef=bass
V: 2 clef=bass
K: Gb
[V:1] EE3/E/ [I:setbarnb 1]| 
[V:2] z3 | 
[V:1] EB,B,2 | 
[V:2] (3!accent!G,, z G,, (3!accent!G,, z G,, | 
[V:1] B,E E3/E/ | 
[V:2] z4 | 
[V:1] EB,B,2 | 
[V:2] z4 | 
[V:1] A,B, B,3/C/ | 
[V:2] z4 | 
[V:1] B,A,A,2- | 
[V:2] z4 | 
[V:1] A,>B, B,3/C/ | 
[V:2] z4 | 
[V:1] B,A,A,2 | 
[V:2] z4 | 
[V:1] G,A, A,3/A,/ | 
[V:2] z4 | 
[V:1] G,E,E,2- | 
[V:2] z4 | 
[V:1] E,G, G,3/A,/ | 
[V:2] z4 | 
[V:1] A,E, E,D, | 
[V:2] z4 | 
[V:1] E,2E,E, | 
[V:2] z4 | 
[V:1] G,>E,E,2 | 
[V:2] z4 | 
[V:1] E,3E, ||  
[V:2] z4 ||  
[V:1] [M:3/4]E,6 ||  
[V:2] [M:3/4]z6 ||  
[V:1] [M:2/4]E,B, B,3/C/ | 
[V:2] [M:2/4]z4 | 
[V:1] B,A,A,2 | 
[V:2] z4 | 
[V:1] B,B, B,3/C/ | 
[V:2] z4 | 
[V:1] B,A,A,2 | 
[V:2] z4 | 
[V:1] G,A, A,3/A,/ | 
[V:2] z4 | 
[V:1] G,>E,E,2- | 
[V:2] z4 | 
[V:1] E,G, G,3/A,/ | 
[V:2] z4 | 
[V:1] A,>E, E,D, | 
[V:2] z4 | 
[V:1] E,2E,E, | 
[V:2] z4 | 
[V:1] G,>E,E,2 | 
[V:2] z4 | 
[V:1] E,3E, | 
[V:2] z4 | 
[V:1] E,4- | 
[V:2] z4 | 
[V:1] E,4 |]  
[V:2] z4 |]  


